src/assets/svg/icons/fa/nuevos/classic/thin/roller-coaster classic thin.svg

<svg xmlns="http://www.w3.org/2000/svg" viewBox="0 0 640 512"><!--! Font Awesome Pro 6.4.0 by @fontawesome - https://fontawesome.com License - https://fontawesome.com/license (Commercial License) Copyright 2023 Fonticons, Inc. --><path d="M136 48c-8.2 0-16.2 .8-24 2.4V472c0 4.4-3.6 8-8 8s-8-3.6-8-8V54.8C49.4 71.3 16 115.8 16 168V472c0 4.4-3.6 8-8 8s-8-3.6-8-8V168C0 92.9 60.9 32 136 32h6.5c43.1 0 83.7 20.4 109.3 55.1l140.6 190c27.4 37 70.8 58.9 116.9 58.9H512c61.9 0 112-50.1 112-112c0-50.7-33.7-93.6-80-107.4V280c0 4.4-3.6 8-8 8s-8-3.6-8-8V113.1c-5.2-.7-10.6-1.1-16-1.1H494.2c-15.8 0-31.5 2.9-46.2 8.5V248c0 4.4-3.6 8-8 8s-8-3.6-8-8V127.9c-1.6 .8-3.1 1.7-4.6 2.6l-47.3 28.4c-3.8 2.3-8.7 1-11-2.7s-1-8.7 2.7-11l47.3-28.4c22.7-13.6 48.6-20.8 75-20.8H512c70.7 0 128 57.3 128 128V472c0 4.4-3.6 8-8 8s-8-3.6-8-8V286c-19.4 34.9-54.6 59.8-96 65V472c0 4.4-3.6 8-8 8s-8-3.6-8-8V352h-2.7c-33.8 0-66.4-10.6-93.3-29.7V472c0 4.4-3.6 8-8 8s-8-3.6-8-8V309.4c-7.4-6.9-14.3-14.4-20.4-22.7L304 184.5V472c0 4.4-3.6 8-8 8s-8-3.6-8-8V162.9L238.9 96.6C230.3 85 219.8 75.2 208 67.5V472c0 4.4-3.6 8-8 8s-8-3.6-8-8V58.7c-15.4-7-32.2-10.7-49.5-10.7H136z"/></svg>

<svg xmlns="http://www.w3.org/2000/svg" viewBox="0 0 640 512"><path d="M136 48C127.8 48 119.8 48.83 112 50.4V472C112 476.4 108.4 480 104 480C99.58 480 96 476.4 96 472V54.83C49.39 71.3 16 115.8 16 168V472C16 476.4 12.42 480 8 480C3.582 480 0 476.4 0 472V168C0 92.89 60.89 32 136 32H142.5C185.6 32 226.2 52.44 251.8 87.09L392.4 277.1C419.9 314.2 463.2 336 509.3 336H512C573.9 336 624 285.9 624 224C624 173.3 590.3 130.4 544 116.6V280C544 284.4 540.4 288 536 288C531.6 288 528 284.4 528 280V113.1C522.8 112.4 517.4 112 512 112H494.2C478.3 112 462.7 114.9 448 120.5V248C448 252.4 444.4 256 440 256C435.6 256 432 252.4 432 248V127.9C430.4 128.7 428.9 129.6 427.4 130.5L380.1 158.9C376.3 161.1 371.4 159.9 369.1 156.1C366.9 152.3 368.1 147.4 371.9 145.1L419.1 116.8C441.8 103.2 467.7 95.1 494.2 95.1H512C582.7 95.1 640 153.3 640 223.1V472C640 476.4 636.4 480 632 480C627.6 480 624 476.4 624 472V286C604.6 320.9 569.4 345.8 528 351V472C528 476.4 524.4 480 520 480C515.6 480 512 476.4 512 472V352H509.3C475.5 352 442.9 341.4 416 322.3V472C416 476.4 412.4 480 408 480C403.6 480 400 476.4 400 472V309.4C392.6 302.5 385.7 294.9 379.6 286.6L304 184.5V472C304 476.4 300.4 480 296 480C291.6 480 288 476.4 288 472V162.9L238.9 96.61C230.3 84.98 219.8 75.16 208 67.46V472C208 476.4 204.4 480 200 480C195.6 480 192 476.4 192 472V58.69C176.6 51.74 159.8 47.1 142.5 47.1L136 48z"/></svg>
